svgs/flowfreewarps.svg

<svg xmlns="http://www.w3.org/2000/svg" viewBox="0 0 192 192"><path d="M69.271 113.361a8.9 8.9 0 0 0-8.46 6.147 8.894 8.894 0 1 0 8.46-6.147Zm-26.686 0a8.897 8.897 0 0 0-8.46 11.644 8.888 8.888 0 0 0 8.46 6.147 8.894 8.894 0 0 0 0-17.791Zm0-53.072a8.9 8.9 0 0 0-8.487 11.65 8.894 8.894 0 0 0 8.487 6.141 8.902 8.902 0 0 0 6.29-2.605 8.9 8.9 0 0 0 0-12.58 8.899 8.899 0 0 0-6.29-2.606Zm26.686 0a8.9 8.9 0 0 0-8.487 11.65 8.894 8.894 0 0 0 8.487 6.141 8.902 8.902 0 0 0 6.29-2.605 8.9 8.9 0 0 0 0-12.58 8.899 8.899 0 0 0-6.29-2.606Zm80.144 53.072a8.894 8.894 0 1 0 0 17.789 8.894 8.894 0 0 0 0-17.789Zm0-53.072a8.907 8.907 0 0 0-5.243 1.689 8.892 8.892 0 0 0 0 14.413 8.893 8.893 0 0 0 5.243 1.689 8.898 8.898 0 0 0 8.896-8.895 8.897 8.897 0 0 0-8.896-8.896Zm-26.729 80.231a8.902 8.902 0 0 0-6.29 2.605 8.898 8.898 0 0 0 6.29 15.186 8.895 8.895 0 0 0 0-17.791Zm26.729-106.831a8.894 8.894 0 1 0 0 17.789 8.894 8.894 0 0 0 0-17.789ZM96 113.361a8.9 8.9 0 0 0-8.46 6.147 8.9 8.9 0 0 0 3.231 9.945 8.9 8.9 0 0 0 10.458 0A8.894 8.894 0 0 0 96 113.361Zm26.686 0a8.894 8.894 0 1 0 0 17.789 8.894 8.894 0 0 0 0-17.789Zm0-44.176V51.48m-80.101-8.895H96" fill="none" stroke="#000" stroke-width="12" stroke-linecap="round" stroke-linejoin="round"/><path d="M166.905 16.5H25.095a8.599 8.599 0 0 0-6.078 2.517 8.599 8.599 0 0 0-2.517 6.078v141.81a8.6 8.6 0 0 0 4.297 7.444 8.6 8.6 0 0 0 4.298 1.151h141.81a8.6 8.6 0 0 0 7.444-4.297 8.6 8.6 0 0 0 1.151-4.298V25.095a8.599 8.599 0 0 0-2.517-6.078 8.599 8.599 0 0 0-6.078-2.517ZM96 113.361V69.185M96 16.5v26.085M96 175.5v-26.085m-53.415 0h52.556m54.274-18.263v18.263m-17.833 0h17.833M175.5 95.312h-26.085m0-17.232v17.232m-26.729 18.049V42.585m17.834 0h-17.834m-80.101 88.567v18.263M16.5 95.312h52.384M42.585 60.289V42.585m35.581 26.6H96m-26.729 44.176V95.312" fill="none" stroke="#000" stroke-width="12" stroke-linecap="round" stroke-linejoin="round"/></svg>

<svg
    xmlns="http://www.w3.org/2000/svg"
    viewBox="0 0 192 192"
    id="vector">
    <path
        id="path"
        d="M 69.271 113.361 C 67.393 113.361 65.562 113.956 64.042 115.06 C 62.523 116.164 61.391 117.721 60.811 119.508 C 60.23 121.294 60.23 123.219 60.811 125.005 C 61.391 126.792 62.523 128.349 64.042 129.453 C 65.562 130.557 67.393 131.152 69.271 131.152 C 71.149 131.152 72.98 130.557 74.499 129.453 C 76.019 128.349 77.15 126.792 77.731 125.005 C 78.311 123.219 78.311 121.294 77.731 119.508 C 77.15 117.721 76.019 116.164 74.499 115.06 C 72.98 113.956 71.149 113.361 69.271 113.361 Z M 42.585 113.361 C 40.706 113.361 38.876 113.956 37.356 115.06 C 35.836 116.164 34.705 117.721 34.125 119.508 C 33.544 121.294 33.544 123.219 34.125 125.005 C 34.705 126.792 35.836 128.349 37.356 129.453 C 38.876 130.557 40.706 131.152 42.585 131.152 C 44.463 131.152 46.294 130.557 47.813 129.453 C 49.333 128.349 50.464 126.792 51.045 125.005 C 51.625 123.219 51.625 121.294 51.045 119.508 C 50.464 117.721 49.333 116.164 47.813 115.06 C 46.294 113.956 44.463 113.361 42.585 113.361 Z M 42.585 60.289 C 40.703 60.284 38.866 60.875 37.342 61.978 C 35.817 63.082 34.681 64.641 34.098 66.431 C 33.515 68.22 33.515 70.149 34.098 71.939 C 34.681 73.729 35.817 75.288 37.342 76.391 C 38.866 77.495 40.703 78.086 42.585 78.08 C 44.943 78.08 47.207 77.142 48.875 75.475 C 50.542 73.807 51.48 71.543 51.48 69.185 C 51.48 66.827 50.542 64.562 48.875 62.895 C 47.207 61.227 44.943 60.289 42.585 60.289 Z M 69.271 60.289 C 67.389 60.284 65.552 60.875 64.028 61.978 C 62.503 63.082 61.367 64.641 60.784 66.431 C 60.202 68.22 60.202 70.149 60.784 71.939 C 61.367 73.729 62.503 75.288 64.028 76.391 C 65.552 77.495 67.389 78.086 69.271 78.08 C 71.629 78.08 73.893 77.142 75.561 75.475 C 77.228 73.807 78.166 71.543 78.166 69.185 C 78.166 66.827 77.228 64.562 75.561 62.895 C 73.893 61.227 71.629 60.289 69.271 60.289 Z M 149.415 113.361 C 147.537 113.361 145.706 113.956 144.187 115.06 C 142.667 116.164 141.536 117.721 140.955 119.508 C 140.375 121.294 140.375 123.219 140.955 125.005 C 141.536 126.792 142.667 128.349 144.187 129.453 C 145.706 130.557 147.537 131.152 149.415 131.152 C 151.294 131.152 153.124 130.557 154.644 129.453 C 156.164 128.349 157.295 126.792 157.875 125.005 C 158.456 123.219 158.456 121.294 157.875 119.508 C 157.295 117.721 156.164 116.164 154.644 115.06 C 153.124 113.956 151.294 113.361 149.415 113.361 Z M 149.415 60.289 C 147.533 60.284 145.697 60.875 144.172 61.978 C 142.648 63.082 141.512 64.641 140.929 66.431 C 140.346 68.22 140.346 70.149 140.929 71.939 C 141.512 73.729 142.648 75.288 144.172 76.391 C 145.697 77.495 147.533 78.086 149.415 78.08 C 151.774 78.08 154.038 77.142 155.705 75.475 C 157.373 73.807 158.311 71.543 158.311 69.185 C 158.311 66.827 157.373 64.562 155.705 62.895 C 154.038 61.227 151.774 60.289 149.415 60.289 Z M 122.686 140.52 C 120.328 140.52 118.064 141.458 116.396 143.125 C 114.729 144.793 113.791 147.057 113.791 149.415 C 113.791 151.774 114.729 154.038 116.396 155.705 C 118.064 157.373 120.328 158.311 122.686 158.311 C 125.045 158.311 127.309 157.373 128.976 155.705 C 130.644 154.038 131.582 151.774 131.582 149.415 C 131.582 147.057 130.644 144.793 128.976 143.125 C 127.309 141.458 125.045 140.52 122.686 140.52 Z M 149.415 33.689 C 147.537 33.689 145.706 34.284 144.187 35.388 C 142.667 36.492 141.536 38.049 140.955 39.836 C 140.375 41.622 140.375 43.547 140.955 45.333 C 141.536 47.12 142.667 48.677 144.187 49.781 C 145.706 50.885 147.537 51.48 149.415 51.48 C 151.294 51.48 153.124 50.885 154.644 49.781 C 156.164 48.677 157.295 47.12 157.875 45.333 C 158.456 43.547 158.456 41.622 157.875 39.836 C 157.295 38.049 156.164 36.492 154.644 35.388 C 153.124 34.284 151.294 33.689 149.415 33.689 Z M 96 113.361 C 94.122 113.361 92.291 113.956 90.771 115.06 C 89.252 116.164 88.12 117.721 87.54 119.508 C 86.96 121.294 86.96 123.219 87.54 125.005 C 88.12 126.792 89.252 128.349 90.771 129.453 C 92.291 130.557 94.122 131.152 96 131.152 C 97.878 131.152 99.709 130.557 101.229 129.453 C 102.748 128.349 103.88 126.792 104.46 125.005 C 105.04 123.219 105.04 121.294 104.46 119.508 C 103.88 117.721 102.748 116.164 101.229 115.06 C 99.709 113.956 97.878 113.361 96 113.361 Z M 122.686 113.361 C 120.808 113.361 118.977 113.956 117.458 115.06 C 115.938 116.164 114.807 117.721 114.226 119.508 C 113.646 121.294 113.646 123.219 114.226 125.005 C 114.807 126.792 115.938 128.349 117.458 129.453 C 118.977 130.557 120.808 131.152 122.686 131.152 C 124.564 131.152 126.395 130.557 127.915 129.453 C 129.434 128.349 130.566 126.792 131.146 125.005 C 131.727 123.219 131.727 121.294 131.146 119.508 C 130.566 117.721 129.434 116.164 127.915 115.06 C 126.395 113.956 124.564 113.361 122.686 113.361 Z M 122.686 69.185 L 122.686 51.48 M 42.585 42.585 L 96 42.585"
        fill="none"
        stroke="#000000"
        stroke-width="12"
        stroke-linecap="round"
        stroke-linejoin="round"/>
    <path
        id="path_1"
        d="M 166.905 16.5 L 25.095 16.5 C 22.816 16.5 20.628 17.406 19.017 19.017 C 17.406 20.628 16.5 22.816 16.5 25.095 L 16.5 166.905 C 16.5 168.414 16.897 169.896 17.651 171.203 C 18.406 172.509 19.491 173.594 20.797 174.349 C 22.104 175.103 23.586 175.5 25.095 175.5 L 166.905 175.5 C 168.414 175.5 169.896 175.103 171.203 174.349 C 172.509 173.594 173.594 172.509 174.349 171.203 C 175.103 169.896 175.5 168.414 175.5 166.905 L 175.5 25.095 C 175.5 22.816 174.594 20.628 172.983 19.017 C 171.372 17.406 169.184 16.5 166.905 16.5 Z M 96 113.361 L 96 69.185 M 96 16.5 L 96 42.585 M 96 175.5 L 96 149.415 M 42.585 149.415 L 95.141 149.415 M 149.415 131.152 L 149.415 149.415 M 131.582 149.415 L 149.415 149.415 M 175.5 95.312 L 149.415 95.312 M 149.415 78.08 L 149.415 95.312 M 122.686 113.361 L 122.686 42.585 M 140.52 42.585 L 122.686 42.585 M 42.585 131.152 L 42.585 149.415 M 16.5 95.312 L 68.884 95.312 M 42.585 60.289 L 42.585 42.585 M 78.166 69.185 L 96 69.185 M 69.271 113.361 L 69.271 95.312"
        fill="none"
        stroke="#000000"
        stroke-width="12"
        stroke-linecap="round"
        stroke-linejoin="round"/>
</svg>
